X:36
T:Train Journey North, The 
C:Joe Buchanan's Scottish Tome - Page 108.2-109.0
I:108 2
C:Tom Anderson
R:Hornpipe
Z:Carl Allison
L:1/16
M:2/4
K:Dmaj
A | "D"d2f>A d>fA>d | f>Ad>f A2df> | "A"g2e>c A>ce>A | c<eA>c e>Af>e |
"D"d2f>A d>fA>d | f>Ad>f A2d>f | "A"g2e>c A>ce>A | "A"c2e>g "D"f>dd>A |
"D"c2e>g f>Ad>f | f>Ad>f A2d>f | "A"g2e>c A>ce>A | c<eA>c e>Af>e |
"D"c<eA>g f>Ad>f | f>Ad>f A2d>f | "A"g2e>c A>ce>A | "A"c2e>g "D"f>Ad>g |]
"D"a2f>d A<Af>A | d>fa<d "G"g>fe>f | "A"g2e>c A<Ae>A | c<ec>g "D"f>Ad>f |
"D"a2fd A<Af>A | d>fa<f "G"g>fe>f | "A"g2e>c A<Ae>A | "A"c2e>g "D"f>Ad>g |
"D"a2f>d A<Af>A | d>fa<d "G"g>fe>f | "A"g2e>c A<Ae>A | c<ec>g "D"f>Ad>f |
"D"a2fd A<Af>A | d>fa<f "G"g>fe>f | "A"g2e>c A<Ae>A | "A"c2e>g "D"f>dd>A |]
"D"d2(f>A) d>fA>d | "D"d2(f>A) d>fA>d | "A"c(e>f) g2(e>A) | "A"c(e>f) d2(f>A) |
"D"d2(fA) d>fA>d | d2(fA) d>fA>d | "A"c2(e>f) g2(e>A) | "A"c2(e>g) "D"f>dd>A |
"D"d2(f>A) d>fA>d | "D"d2(f>A) d>fA>d | "A"c(e>f) g2(e>A) | "A"c(e>f) d2(f>A) |
((3efg) | aAce agfe | fgaf defd | dfga ecAc | {c/}(d4 d2) ((3efg) |
((3efg) | aAce agfe | fgaf defd | dfga ecAB | {c/}A4 A2 ((3efg) |
((3efg) | aAce agfe | fgaf defd | dfga ecAc | {c/}(B4 B2) ec |
ABcd eAcA | defg a2gf | {f/}[ee]2>c2 {c}d2B2 | {b/}[AA]4 [AA]2 |]

